src/data/assets/nim-world.svg

<svg width="218" height="218" viewBox="0 0 218 218" fill="none" xmlns="http://www.w3.org/2000/svg">
<path d="M40.7341 108.156L36.5762 100.844C36.2768 100.321 35.728 100 35.1348 100H26.819C26.2258 100 25.6769 100.321 25.3803 100.844L21.2224 108.156C20.9259 108.679 20.9259 109.321 21.2224 109.844L25.3803 117.156C25.6769 117.679 26.2258 118 26.819 118H35.1348C35.728 118 36.2768 117.679 36.5734 117.156L40.7313 109.844C41.0307 109.321 41.0307 108.679 40.7341 108.156Z" fill="black"/>
<path d="M40.7341 88.1562L36.5762 80.8438C36.2768 80.3206 35.728 80 35.1348 80H26.819C26.2258 80 25.6769 80.3206 25.3803 80.8438L21.2224 88.1562C20.9259 88.6794 20.9259 89.3206 21.2224 89.8438L25.3803 97.1562C25.6769 97.6794 26.2258 98 26.819 98H35.1348C35.728 98 36.2768 97.6794 36.5734 97.1562L40.7313 89.8438C41.0307 89.3206 41.0307 88.6794 40.7341 88.1562Z" fill="black"/>
<path d="M57.7341 98.1562L53.5762 90.8438C53.2768 90.3206 52.728 90 52.1348 90H43.819C43.2258 90 42.6769 90.3206 42.3803 90.8438L38.2224 98.1562C37.9259 98.6794 37.9259 99.3206 38.2224 99.8438L42.3803 107.156C42.6769 107.679 43.2258 108 43.819 108H52.1348C52.728 108 53.2768 107.679 53.5734 107.156L57.7313 99.8438C58.0307 99.3206 58.0307 98.6794 57.7341 98.1562Z" fill="black"/>
<path d="M108.734 108.156L104.576 100.844C104.277 100.321 103.728 100 103.135 100H94.819C94.2258 100 93.6769 100.321 93.3803 100.844L89.2224 108.156C88.9259 108.679 88.9259 109.321 89.2224 109.844L93.3803 117.156C93.6769 117.679 94.2258 118 94.819 118H103.135C103.728 118 104.277 117.679 104.573 117.156L108.731 109.844C109.031 109.321 109.031 108.679 108.734 108.156Z" fill="black"/>
<path d="M125.734 117.156L121.576 109.844C121.277 109.321 120.728 109 120.135 109H111.819C111.226 109 110.677 109.321 110.38 109.844L106.222 117.156C105.926 117.679 105.926 118.321 106.222 118.844L110.38 126.156C110.677 126.679 111.226 127 111.819 127H120.135C120.728 127 121.277 126.679 121.573 126.156L125.731 118.844C126.031 118.321 126.031 117.679 125.734 117.156Z" fill="black"/>
<path d="M142.734 127.156L138.576 119.844C138.277 119.321 137.728 119 137.135 119H128.819C128.226 119 127.677 119.321 127.38 119.844L123.222 127.156C122.926 127.679 122.926 128.321 123.222 128.844L127.38 136.156C127.677 136.679 128.226 137 128.819 137H137.135C137.728 137 138.277 136.679 138.573 136.156L142.731 128.844C143.031 128.321 143.031 127.679 142.734 127.156Z" fill="black"/>
<path d="M159.734 137.156L155.576 129.844C155.277 129.321 154.728 129 154.135 129H145.819C145.226 129 144.677 129.321 144.38 129.844L140.222 137.156C139.926 137.679 139.926 138.321 140.222 138.844L144.38 146.156C144.677 146.679 145.226 147 145.819 147H154.135C154.728 147 155.277 146.679 155.573 146.156L159.731 138.844C160.031 138.321 160.031 137.679 159.734 137.156Z" fill="black"/>
<path d="M74.7341 88.1562L70.5762 80.8438C70.2768 80.3206 69.728 80 69.1348 80H60.819C60.2258 80 59.6769 80.3206 59.3803 80.8438L55.2224 88.1562C54.9259 88.6794 54.9259 89.3206 55.2224 89.8438L59.3803 97.1562C59.6769 97.6794 60.2258 98 60.819 98H69.1348C69.728 98 70.2768 97.6794 70.5734 97.1562L74.7313 89.8438C75.0307 89.3206 75.0307 88.6794 74.7341 88.1562Z" fill="black"/>
<path d="M91.7341 98.1562L87.5762 90.8438C87.2768 90.3206 86.728 90 86.1348 90H77.819C77.2258 90 76.6769 90.3206 76.3803 90.8438L72.2224 98.1562C71.9259 98.6794 71.9259 99.3206 72.2224 99.8438L76.3803 107.156C76.6769 107.679 77.2258 108 77.819 108H86.1348C86.728 108 87.2768 107.679 87.5734 107.156L91.7313 99.8438C92.0307 99.3206 92.0307 98.6794 91.7341 98.1562Z" fill="black"/>
<path d="M57.7341 58.1562L53.5762 50.8438C53.2768 50.3206 52.728 50 52.1348 50H43.819C43.2258 50 42.6769 50.3206 42.3803 50.8438L38.2224 58.1562C37.9259 58.6794 37.9259 59.3206 38.2224 59.8438L42.3803 67.1562C42.6769 67.6794 43.2258 68 43.819 68H52.1348C52.728 68 53.2768 67.6794 53.5734 67.1562L57.7313 59.8438C58.0307 59.3206 58.0307 58.6794 57.7341 58.1562Z" fill="black"/>
<path d="M108.734 68.1562L104.576 60.8438C104.277 60.3206 103.728 60 103.135 60H94.819C94.2258 60 93.6769 60.3206 93.3803 60.8438L89.2224 68.1562C88.9259 68.6794 88.9259 69.3206 89.2224 69.8438L93.3803 77.1562C93.6769 77.6794 94.2258 78 94.819 78H103.135C103.728 78 104.277 77.6794 104.573 77.1562L108.731 69.8438C109.031 69.3206 109.031 68.6794 108.734 68.1562Z" fill="black"/>
<path d="M57.7341 118.156L53.5762 110.844C53.2768 110.321 52.728 110 52.1348 110H43.819C43.2258 110 42.6769 110.321 42.3803 110.844L38.2224 118.156C37.9259 118.679 37.9259 119.321 38.2224 119.844L42.3803 127.156C42.6769 127.679 43.2258 128 43.819 128H52.1348C52.728 128 53.2768 127.679 53.5734 127.156L57.7313 119.844C58.0307 119.321 58.0307 118.679 57.7341 118.156Z" fill="black"/>
<path d="M108.734 128.156L104.576 120.844C104.277 120.321 103.728 120 103.135 120H94.819C94.2258 120 93.6769 120.321 93.3803 120.844L89.2224 128.156C88.9259 128.679 88.9259 129.321 89.2224 129.844L93.3803 137.156C93.6769 137.679 94.2258 138 94.819 138H103.135C103.728 138 104.277 137.679 104.573 137.156L108.731 129.844C109.031 129.321 109.031 128.679 108.734 128.156Z" fill="black"/>
<path d="M125.734 137.156L121.576 129.844C121.277 129.321 120.728 129 120.135 129H111.819C111.226 129 110.677 129.321 110.38 129.844L106.222 137.156C105.926 137.679 105.926 138.321 106.222 138.844L110.38 146.156C110.677 146.679 111.226 147 111.819 147H120.135C120.728 147 121.277 146.679 121.573 146.156L125.731 138.844C126.031 138.321 126.031 137.679 125.734 137.156Z" fill="black"/>
<path d="M142.734 147.156L138.576 139.844C138.277 139.321 137.728 139 137.135 139H128.819C128.226 139 127.677 139.321 127.38 139.844L123.222 147.156C122.926 147.679 122.926 148.321 123.222 148.844L127.38 156.156C127.677 156.679 128.226 157 128.819 157H137.135C137.728 157 138.277 156.679 138.573 156.156L142.731 148.844C143.031 148.321 143.031 147.679 142.734 147.156Z" fill="black"/>
<path d="M159.734 157.156L155.576 149.844C155.277 149.321 154.728 149 154.135 149H145.819C145.226 149 144.677 149.321 144.38 149.844L140.222 157.156C139.926 157.679 139.926 158.321 140.222 158.844L144.38 166.156C144.677 166.679 145.226 167 145.819 167H154.135C154.728 167 155.277 166.679 155.573 166.156L159.731 158.844C160.031 158.321 160.031 157.679 159.734 157.156Z" fill="black"/>
<path d="M74.7341 108.156L70.5762 100.844C70.2768 100.321 69.728 100 69.1348 100H60.819C60.2258 100 59.6769 100.321 59.3803 100.844L55.2224 108.156C54.9259 108.679 54.9259 109.321 55.2224 109.844L59.3803 117.156C59.6769 117.679 60.2258 118 60.819 118H69.1348C69.728 118 70.2768 117.679 70.5734 117.156L74.7313 109.844C75.0307 109.321 75.0307 108.679 74.7341 108.156Z" fill="black"/>
<path d="M91.7341 118.156L87.5762 110.844C87.2768 110.321 86.728 110 86.1348 110H77.819C77.2258 110 76.6769 110.321 76.3803 110.844L72.2224 118.156C71.9259 118.679 71.9259 119.321 72.2224 119.844L76.3803 127.156C76.6769 127.679 77.2258 128 77.819 128H86.1348C86.728 128 87.2768 127.679 87.5734 127.156L91.7313 119.844C92.0307 119.321 92.0307 118.679 91.7341 118.156Z" fill="black"/>
<path d="M91.7341 138.156L87.5762 130.844C87.2768 130.321 86.728 130 86.1348 130H77.819C77.2258 130 76.6769 130.321 76.3803 130.844L72.2224 138.156C71.9259 138.679 71.9259 139.321 72.2224 139.844L76.3803 147.156C76.6769 147.679 77.2258 148 77.819 148H86.1348C86.728 148 87.2768 147.679 87.5734 147.156L91.7313 139.844C92.0307 139.321 92.0307 138.679 91.7341 138.156Z" fill="black"/>
<path d="M57.7341 78.1562L53.5762 70.8438C53.2768 70.3206 52.728 70 52.1348 70H43.819C43.2258 70 42.6769 70.3206 42.3803 70.8438L38.2224 78.1562C37.9259 78.6794 37.9259 79.3206 38.2224 79.8438L42.3803 87.1562C42.6769 87.6794 43.2258 88 43.819 88H52.1348C52.728 88 53.2768 87.6794 53.5734 87.1562L57.7313 79.8438C58.0307 79.3206 58.0307 78.6794 57.7341 78.1562Z" fill="black"/>
<path d="M108.734 88.1562L104.576 80.8438C104.277 80.3206 103.728 80 103.135 80H94.819C94.2258 80 93.6769 80.3206 93.3803 80.8438L89.2224 88.1562C88.9259 88.6794 88.9259 89.3206 89.2224 89.8438L93.3803 97.1562C93.6769 97.6794 94.2258 98 94.819 98H103.135C103.728 98 104.277 97.6794 104.573 97.1562L108.731 89.8438C109.031 89.3206 109.031 88.6794 108.734 88.1562Z" fill="black"/>
<path d="M125.734 97.1562L121.576 89.8438C121.277 89.3206 120.728 89 120.135 89H111.819C111.226 89 110.677 89.3206 110.38 89.8438L106.222 97.1562C105.926 97.6794 105.926 98.3206 106.222 98.8438L110.38 106.156C110.677 106.679 111.226 107 111.819 107H120.135C120.728 107 121.277 106.679 121.573 106.156L125.731 98.8438C126.031 98.3206 126.031 97.6794 125.734 97.1562Z" fill="black"/>
<path d="M74.7341 68.1562L70.5762 60.8438C70.2768 60.3206 69.728 60 69.1348 60H60.819C60.2258 60 59.6769 60.3206 59.3803 60.8438L55.2224 68.1562C54.9259 68.6794 54.9259 69.3206 55.2224 69.8438L59.3803 77.1562C59.6769 77.6794 60.2258 78 60.819 78H69.1348C69.728 78 70.2768 77.6794 70.5734 77.1562L74.7313 69.8438C75.0307 69.3206 75.0307 68.6794 74.7341 68.1562Z" fill="black"/>
<path d="M91.7341 58.1562L87.5762 50.8438C87.2768 50.3206 86.728 50 86.1348 50H77.819C77.2258 50 76.6769 50.3206 76.3803 50.8438L72.2224 58.1562C71.9259 58.6794 71.9259 59.3206 72.2224 59.8438L76.3803 67.1562C76.6769 67.6794 77.2258 68 77.819 68H86.1348C86.728 68 87.2768 67.6794 87.5734 67.1562L91.7313 59.8438C92.0307 59.3206 92.0307 58.6794 91.7341 58.1562Z" fill="black"/>
<path d="M91.7341 78.1562L87.5762 70.8438C87.2768 70.3206 86.728 70 86.1348 70H77.819C77.2258 70 76.6769 70.3206 76.3803 70.8438L72.2224 78.1562C71.9259 78.6794 71.9259 79.3206 72.2224 79.8438L76.3803 87.1562C76.6769 87.6794 77.2258 88 77.819 88H86.1348C86.728 88 87.2768 87.6794 87.5734 87.1562L91.7313 79.8438C92.0307 79.3206 92.0307 78.6794 91.7341 78.1562Z" fill="black"/>
<path d="M127.089 113.001V106.937C127.089 106.606 127.078 106.27 127.057 105.929C127.036 105.587 127.004 105.251 126.961 104.921H128.897L129.057 106.521H128.865C129.121 105.955 129.5 105.523 130.001 105.225C130.502 104.915 131.084 104.761 131.745 104.761C132.694 104.761 133.409 105.027 133.889 105.561C134.369 106.094 134.609 106.926 134.609 108.057V113.001H132.609V108.153C132.609 107.502 132.481 107.038 132.225 106.761C131.98 106.473 131.606 106.329 131.105 106.329C130.486 106.329 129.996 106.521 129.633 106.905C129.27 107.289 129.089 107.801 129.089 108.441V113.001H127.089ZM136.73 113.001V104.921H138.73V113.001H136.73ZM136.618 103.401V101.449H138.842V103.401H136.618ZM140.902 113.001V106.937C140.902 106.606 140.891 106.27 140.869 105.929C140.848 105.587 140.816 105.251 140.774 104.921H142.71L142.87 106.521H142.678C142.902 105.966 143.243 105.534 143.702 105.225C144.171 104.915 144.726 104.761 145.366 104.761C146.006 104.761 146.534 104.915 146.95 105.225C147.376 105.523 147.675 105.993 147.846 106.633H147.59C147.814 106.057 148.182 105.603 148.694 105.273C149.206 104.931 149.792 104.761 150.454 104.761C151.36 104.761 152.038 105.027 152.486 105.561C152.934 106.094 153.158 106.926 153.158 108.057V113.001H151.158V108.137C151.158 107.497 151.051 107.038 150.838 106.761C150.624 106.473 150.283 106.329 149.813 106.329C149.259 106.329 148.822 106.526 148.502 106.921C148.182 107.305 148.022 107.827 148.022 108.489V113.001H146.022V108.137C146.022 107.497 145.915 107.038 145.702 106.761C145.488 106.473 145.147 106.329 144.678 106.329C144.123 106.329 143.686 106.526 143.366 106.921C143.056 107.305 142.902 107.827 142.902 108.489V113.001H140.902ZM157.454 113.001L154.302 104.921H156.366L158.638 111.209H158.222L160.526 104.921H161.95L164.238 111.209H163.87L166.126 104.921H168.078L164.926 113.001H163.166L160.75 106.569H161.598L159.23 113.001H157.454ZM172.831 113.161C171.999 113.161 171.279 112.99 170.671 112.649C170.063 112.307 169.588 111.822 169.247 111.193C168.916 110.563 168.751 109.817 168.751 108.953C168.751 108.089 168.916 107.347 169.247 106.729C169.588 106.099 170.063 105.614 170.671 105.273C171.279 104.931 171.999 104.761 172.831 104.761C173.663 104.761 174.383 104.931 174.991 105.273C175.609 105.614 176.084 106.099 176.415 106.729C176.756 107.347 176.927 108.089 176.927 108.953C176.927 109.817 176.756 110.563 176.415 111.193C176.084 111.822 175.609 112.307 174.991 112.649C174.383 112.99 173.663 113.161 172.831 113.161ZM172.831 111.625C173.46 111.625 173.961 111.406 174.335 110.969C174.708 110.521 174.895 109.849 174.895 108.953C174.895 108.057 174.708 107.39 174.335 106.953C173.961 106.515 173.46 106.297 172.831 106.297C172.201 106.297 171.7 106.515 171.327 106.953C170.953 107.39 170.767 108.057 170.767 108.953C170.767 109.849 170.953 110.521 171.327 110.969C171.7 111.406 172.201 111.625 172.831 111.625ZM178.636 113.001V106.985C178.636 106.643 178.625 106.297 178.604 105.945C178.593 105.593 178.566 105.251 178.524 104.921H180.46L180.684 107.129H180.364C180.47 106.595 180.646 106.153 180.892 105.801C181.148 105.449 181.457 105.187 181.82 105.017C182.182 104.846 182.577 104.761 183.004 104.761C183.196 104.761 183.35 104.771 183.468 104.793C183.585 104.803 183.702 104.83 183.82 104.873L183.804 106.633C183.601 106.547 183.425 106.494 183.276 106.473C183.137 106.451 182.961 106.441 182.748 106.441C182.289 106.441 181.9 106.537 181.58 106.729C181.27 106.921 181.036 107.187 180.876 107.529C180.726 107.87 180.652 108.259 180.652 108.697V113.001H178.636ZM184.933 113.001V101.225H186.933V113.001H184.933ZM192.241 113.161C191.537 113.161 190.913 112.995 190.369 112.665C189.835 112.323 189.419 111.838 189.121 111.209C188.822 110.579 188.673 109.827 188.673 108.953C188.673 108.078 188.822 107.331 189.121 106.713C189.419 106.083 189.835 105.603 190.369 105.273C190.913 104.931 191.537 104.761 192.241 104.761C192.913 104.761 193.505 104.926 194.017 105.257C194.539 105.577 194.886 106.014 195.057 106.569H194.849V101.225H196.849V113.001H194.881V111.289H195.073C194.902 111.865 194.555 112.323 194.033 112.665C193.521 112.995 192.923 113.161 192.241 113.161ZM192.801 111.625C193.43 111.625 193.937 111.406 194.321 110.969C194.705 110.521 194.897 109.849 194.897 108.953C194.897 108.057 194.705 107.39 194.321 106.953C193.937 106.515 193.43 106.297 192.801 106.297C192.171 106.297 191.659 106.515 191.265 106.953C190.881 107.39 190.689 108.057 190.689 108.953C190.689 109.849 190.881 110.521 191.265 110.969C191.659 111.406 192.171 111.625 192.801 111.625Z" fill="black"/>
</svg>

<svg xmlns="http://www.w3.org/2000/svg" width="218" height="218" fill="none" viewBox="0 0 218 218"><path fill="#fff" d="m40.734 108.156-4.158-7.312a1.66 1.66 0 0 0-1.441-.844h-8.316c-.593 0-1.142.321-1.439.844l-4.158 7.312a1.71 1.71 0 0 0 0 1.688l4.158 7.312c.297.523.846.844 1.439.844h8.316c.593 0 1.142-.321 1.438-.844l4.158-7.312c.3-.523.3-1.165.003-1.688M40.734 88.156l-4.158-7.312A1.66 1.66 0 0 0 35.135 80h-8.316c-.593 0-1.142.32-1.439.844l-4.158 7.312a1.71 1.71 0 0 0 0 1.688l4.158 7.312c.297.523.846.844 1.439.844h8.316c.593 0 1.142-.32 1.438-.844l4.158-7.312c.3-.523.3-1.165.003-1.688M57.734 98.156l-4.158-7.312A1.66 1.66 0 0 0 52.135 90h-8.316c-.593 0-1.142.32-1.439.844l-4.158 7.312a1.71 1.71 0 0 0 0 1.688l4.158 7.312c.297.523.846.844 1.439.844h8.316c.593 0 1.142-.321 1.438-.844l4.158-7.312c.3-.523.3-1.165.003-1.688M108.734 108.156l-4.158-7.312a1.66 1.66 0 0 0-1.441-.844h-8.316c-.593 0-1.142.321-1.439.844l-4.158 7.312a1.71 1.71 0 0 0 0 1.688l4.158 7.312c.297.523.846.844 1.439.844h8.316c.593 0 1.142-.321 1.438-.844l4.158-7.312c.3-.523.3-1.165.003-1.688M125.734 117.156l-4.158-7.312a1.66 1.66 0 0 0-1.441-.844h-8.316c-.593 0-1.142.321-1.439.844l-4.158 7.312a1.72 1.72 0 0 0 0 1.688l4.158 7.312c.297.523.846.844 1.439.844h8.316c.593 0 1.142-.321 1.438-.844l4.158-7.312c.3-.523.3-1.165.003-1.688M142.734 127.156l-4.158-7.312a1.66 1.66 0 0 0-1.441-.844h-8.316c-.593 0-1.142.321-1.439.844l-4.158 7.312a1.72 1.72 0 0 0 0 1.688l4.158 7.312c.297.523.846.844 1.439.844h8.316c.593 0 1.142-.321 1.438-.844l4.158-7.312c.3-.523.3-1.165.003-1.688M159.734 137.156l-4.158-7.312a1.66 1.66 0 0 0-1.441-.844h-8.316c-.593 0-1.142.321-1.439.844l-4.158 7.312a1.72 1.72 0 0 0 0 1.688l4.158 7.312c.297.523.846.844 1.439.844h8.316c.593 0 1.142-.321 1.438-.844l4.158-7.312c.3-.523.3-1.165.003-1.688M74.734 88.156l-4.158-7.312A1.66 1.66 0 0 0 69.135 80h-8.316c-.593 0-1.142.32-1.439.844l-4.158 7.312a1.71 1.71 0 0 0 0 1.688l4.158 7.312c.297.523.846.844 1.439.844h8.316c.593 0 1.142-.32 1.438-.844l4.158-7.312c.3-.523.3-1.165.003-1.688M91.734 98.156l-4.158-7.312A1.66 1.66 0 0 0 86.135 90h-8.316c-.593 0-1.142.32-1.439.844l-4.158 7.312a1.71 1.71 0 0 0 0 1.688l4.158 7.312c.297.523.846.844 1.439.844h8.316c.593 0 1.142-.321 1.438-.844l4.158-7.312c.3-.523.3-1.165.003-1.688M57.734 58.156l-4.158-7.312A1.66 1.66 0 0 0 52.135 50h-8.316c-.593 0-1.142.32-1.439.844l-4.158 7.312a1.71 1.71 0 0 0 0 1.688l4.158 7.312c.297.523.846.844 1.439.844h8.316c.593 0 1.142-.32 1.438-.844l4.158-7.312c.3-.523.3-1.165.003-1.688M108.734 68.156l-4.158-7.312a1.66 1.66 0 0 0-1.441-.844h-8.316c-.593 0-1.142.32-1.439.844l-4.158 7.312a1.71 1.71 0 0 0 0 1.688l4.158 7.312c.297.523.846.844 1.439.844h8.316c.593 0 1.142-.32 1.438-.844l4.158-7.312c.3-.523.3-1.165.003-1.688M57.734 118.156l-4.158-7.312a1.66 1.66 0 0 0-1.441-.844h-8.316c-.593 0-1.142.321-1.439.844l-4.158 7.312a1.71 1.71 0 0 0 0 1.688l4.158 7.312c.297.523.846.844 1.439.844h8.316c.593 0 1.142-.321 1.438-.844l4.158-7.312c.3-.523.3-1.165.003-1.688M108.734 128.156l-4.158-7.312a1.66 1.66 0 0 0-1.441-.844h-8.316c-.593 0-1.142.321-1.439.844l-4.158 7.312a1.71 1.71 0 0 0 0 1.688l4.158 7.312c.297.523.846.844 1.439.844h8.316c.593 0 1.142-.321 1.438-.844l4.158-7.312c.3-.523.3-1.165.003-1.688M125.734 137.156l-4.158-7.312a1.66 1.66 0 0 0-1.441-.844h-8.316c-.593 0-1.142.321-1.439.844l-4.158 7.312a1.72 1.72 0 0 0 0 1.688l4.158 7.312c.297.523.846.844 1.439.844h8.316c.593 0 1.142-.321 1.438-.844l4.158-7.312c.3-.523.3-1.165.003-1.688M142.734 147.156l-4.158-7.312a1.66 1.66 0 0 0-1.441-.844h-8.316c-.593 0-1.142.321-1.439.844l-4.158 7.312a1.72 1.72 0 0 0 0 1.688l4.158 7.312c.297.523.846.844 1.439.844h8.316c.593 0 1.142-.321 1.438-.844l4.158-7.312c.3-.523.3-1.165.003-1.688M159.734 157.156l-4.158-7.312a1.66 1.66 0 0 0-1.441-.844h-8.316c-.593 0-1.142.321-1.439.844l-4.158 7.312a1.72 1.72 0 0 0 0 1.688l4.158 7.312c.297.523.846.844 1.439.844h8.316c.593 0 1.142-.321 1.438-.844l4.158-7.312c.3-.523.3-1.165.003-1.688M74.734 108.156l-4.158-7.312a1.66 1.66 0 0 0-1.441-.844h-8.316c-.593 0-1.142.321-1.439.844l-4.158 7.312a1.71 1.71 0 0 0 0 1.688l4.158 7.312c.297.523.846.844 1.439.844h8.316c.593 0 1.142-.321 1.438-.844l4.158-7.312c.3-.523.3-1.165.003-1.688M91.734 118.156l-4.158-7.312a1.66 1.66 0 0 0-1.441-.844h-8.316c-.593 0-1.142.321-1.439.844l-4.158 7.312a1.71 1.71 0 0 0 0 1.688l4.158 7.312c.297.523.846.844 1.439.844h8.316c.593 0 1.142-.321 1.438-.844l4.158-7.312c.3-.523.3-1.165.003-1.688M91.734 138.156l-4.158-7.312a1.66 1.66 0 0 0-1.441-.844h-8.316c-.593 0-1.142.321-1.439.844l-4.158 7.312a1.71 1.71 0 0 0 0 1.688l4.158 7.312c.297.523.846.844 1.439.844h8.316c.593 0 1.142-.321 1.438-.844l4.158-7.312c.3-.523.3-1.165.003-1.688M57.734 78.156l-4.158-7.312A1.66 1.66 0 0 0 52.135 70h-8.316c-.593 0-1.142.32-1.439.844l-4.158 7.312a1.71 1.71 0 0 0 0 1.688l4.158 7.312c.297.523.846.844 1.439.844h8.316c.593 0 1.142-.32 1.438-.844l4.158-7.312c.3-.523.3-1.165.003-1.688M108.734 88.156l-4.158-7.312a1.66 1.66 0 0 0-1.441-.844h-8.316c-.593 0-1.142.32-1.439.844l-4.158 7.312a1.71 1.71 0 0 0 0 1.688l4.158 7.312c.297.523.846.844 1.439.844h8.316c.593 0 1.142-.32 1.438-.844l4.158-7.312c.3-.523.3-1.165.003-1.688M125.734 97.156l-4.158-7.312a1.66 1.66 0 0 0-1.441-.844h-8.316c-.593 0-1.142.32-1.439.844l-4.158 7.312a1.72 1.72 0 0 0 0 1.688l4.158 7.312c.297.523.846.844 1.439.844h8.316c.593 0 1.142-.321 1.438-.844l4.158-7.312c.3-.523.3-1.165.003-1.688M74.734 68.156l-4.158-7.312A1.66 1.66 0 0 0 69.135 60h-8.316c-.593 0-1.142.32-1.439.844l-4.158 7.312a1.71 1.71 0 0 0 0 1.688l4.158 7.312c.297.523.846.844 1.439.844h8.316c.593 0 1.142-.32 1.438-.844l4.158-7.312c.3-.523.3-1.165.003-1.688M91.734 58.156l-4.158-7.312A1.66 1.66 0 0 0 86.135 50h-8.316c-.593 0-1.142.32-1.439.844l-4.158 7.312a1.71 1.71 0 0 0 0 1.688l4.158 7.312c.297.523.846.844 1.439.844h8.316c.593 0 1.142-.32 1.438-.844l4.158-7.312c.3-.523.3-1.165.003-1.688M91.734 78.156l-4.158-7.312A1.66 1.66 0 0 0 86.135 70h-8.316c-.593 0-1.142.32-1.439.844l-4.158 7.312a1.71 1.71 0 0 0 0 1.688l4.158 7.312c.297.523.846.844 1.439.844h8.316c.593 0 1.142-.32 1.438-.844l4.158-7.312c.3-.523.3-1.165.003-1.688M127.089 113.001v-6.064a16 16 0 0 0-.128-2.016h1.936l.16 1.6h-.192a2.8 2.8 0 0 1 1.136-1.296q.752-.464 1.744-.464 1.424 0 2.144.8t.72 2.496v4.944h-2v-4.848q0-.977-.384-1.392-.368-.432-1.12-.432-.928 0-1.472.576t-.544 1.536v4.56zm9.641 0v-8.08h2v8.08zm-.112-9.6v-1.952h2.224v1.952zm4.284 9.6v-6.064q0-.497-.033-1.008a16 16 0 0 0-.095-1.008h1.936l.16 1.6h-.192q.336-.832 1.024-1.296.704-.464 1.664-.464t1.584.464q.64.447.896 1.408h-.256a2.77 2.77 0 0 1 1.104-1.36q.768-.512 1.76-.512 1.36 0 2.032.8t.672 2.496v4.944h-2v-4.864q0-.96-.32-1.376-.32-.432-1.025-.432-.831 0-1.311.592-.48.576-.48 1.568v4.512h-2v-4.864q0-.96-.32-1.376-.32-.432-1.024-.432-.832 0-1.312.592-.465.576-.464 1.568v4.512zm16.552 0-3.152-8.08h2.064l2.272 6.288h-.416l2.304-6.288h1.424l2.288 6.288h-.368l2.256-6.288h1.952l-3.152 8.08h-1.76l-2.416-6.432h.848l-2.368 6.432zm15.377.16q-1.248 0-2.16-.512a3.6 3.6 0 0 1-1.424-1.456q-.496-.944-.496-2.24t.496-2.224a3.6 3.6 0 0 1 1.424-1.456q.912-.512 2.16-.512t2.16.512a3.47 3.47 0 0 1 1.424 1.456q.512.927.512 2.224 0 1.296-.512 2.24a3.5 3.5 0 0 1-1.424 1.456q-.912.512-2.16.512m0-1.536q.943 0 1.504-.656.56-.672.56-2.016t-.56-2-1.504-.656-1.504.656-.56 2 .56 2.016q.56.656 1.504.656m5.805 1.376v-6.016q0-.513-.032-1.04a11 11 0 0 0-.08-1.024h1.936l.224 2.208h-.32q.159-.8.528-1.328.384-.529.928-.784a2.7 2.7 0 0 1 1.184-.256q.287 0 .464.032.175.015.352.08l-.016 1.76a2.2 2.2 0 0 0-.528-.16 3.5 3.5 0 0 0-.528-.032q-.688 0-1.168.288-.465.287-.704.8-.225.511-.224 1.168v4.304zm6.297 0v-11.776h2v11.776zm7.308.16q-1.056 0-1.872-.496-.801-.513-1.248-1.456-.448-.945-.448-2.256 0-1.313.448-2.24.447-.945 1.248-1.44.816-.512 1.872-.512 1.008 0 1.776.496.783.48 1.04 1.312h-.208v-5.344h2v11.776h-1.968v-1.712h.192a2.43 2.43 0 0 1-1.04 1.376q-.769.495-1.792.496m.56-1.536q.944 0 1.52-.656.576-.672.576-2.016t-.576-2-1.52-.656-1.536.656q-.576.656-.576 2t.576 2.016q.591.656 1.536.656"/></svg>
